icons/papirus/32x32/apps/playonlinux.svg

<?xml version="1.0" encoding="UTF-8" standalone="no"?>
<svg
   xmlns:dc="http://purl.org/dc/elements/1.1/"
   xmlns:cc="http://creativecommons.org/ns#"
   xmlns:rdf="http://www.w3.org/1999/02/22-rdf-syntax-ns#"
   xmlns:svg="http://www.w3.org/2000/svg"
   xmlns="http://www.w3.org/2000/svg"
   xmlns:sodipodi="http://sodipodi.sourceforge.net/DTD/sodipodi-0.dtd"
   xmlns:inkscape="http://www.inkscape.org/namespaces/inkscape"
   viewBox="0 0 32 32"
   id="svg2"
   version="1.1"
   inkscape:version="0.91 r"
   sodipodi:docname="playonlinux.svg"
   width="32"
   height="32">
  <metadata
     id="metadata71">
    <rdf:RDF>
      <cc:Work
         rdf:about="">
        <dc:format>image/svg+xml</dc:format>
        <dc:type
           rdf:resource="http://purl.org/dc/dcmitype/StillImage" />
        <dc:title></dc:title>
      </cc:Work>
    </rdf:RDF>
  </metadata>
  <sodipodi:namedview
     pagecolor="#b6b6b6"
     bordercolor="#666666"
     borderopacity="1"
     objecttolerance="10"
     gridtolerance="10"
     guidetolerance="10"
     inkscape:pageopacity="0"
     inkscape:pageshadow="2"
     inkscape:window-width="1600"
     inkscape:window-height="843"
     id="namedview69"
     showgrid="false"
     showguides="false"
     inkscape:zoom="8.66"
     inkscape:cx="1.9528755"
     inkscape:cy="24.592736"
     inkscape:window-x="-4"
     inkscape:window-y="31"
     inkscape:window-maximized="1"
     inkscape:current-layer="svg2">
    <inkscape:grid
       type="xygrid"
       id="grid4224" />
  </sodipodi:namedview>
  <defs
     id="defs4" />
  <g
     id="g4157"
     transform="matrix(0.975,0,0,0.975,0.39999983,0.39999995)">
    <path
       inkscape:connector-curvature="0"
       id="path4254"
       style="fill:#37a0f2;fill-opacity:1;fill-rule:nonzero;stroke:none"
       d="m 16.151887,16.048517 c 2.982596,5.428447 1.60856,15.754479 -3.598375,12.745959 -1.522507,-0.880667 -2.116579,-1.806572 -2.217209,-2.671506 -0.7992976,0.34619 -1.8972856,0.295841 -3.4234763,-0.58285 -5.782795,-3.338699 3.0462547,-9.360576 9.2353803,-9.489637"
       sodipodi:nodetypes="ccccc" />
    <path
       sodipodi:nodetypes="cscccsc"
       d="m 16.151887,16.048517 c 0.20953,-0.0045 0.421422,-0.01601 0.635074,-0.03432 C 22.887619,15.491209 30.423695,9.46265 25.391023,6.5592533 23.86709,5.6810587 22.768195,5.629529 21.968827,5.9748482 21.868987,5.109541 21.276389,4.1838304 19.752325,3.3014561 14.225937,0.11079408 13.249745,9.7023307 15.777401,15.293607 c 0.117275,0.259417 0.06692,0.539418 0.199178,0.779936"
       style="fill:#e74c3c;fill-opacity:1;fill-rule:nonzero;stroke:none"
       id="path59"
       inkscape:connector-curvature="0" />
    <path
       inkscape:connector-curvature="0"
       id="path4262"
       style="fill:#fecd38;fill-opacity:1;fill-rule:nonzero;stroke:none"
       d="m 15.951483,16.102215 c 0.131219,6.192472 6.484185,14.448059 9.489263,9.239138 0.878196,-1.523934 0.929725,-2.622828 0.584406,-3.422198 0.865307,-0.09984 1.791018,-0.692436 2.673392,-2.216501 3.338699,-5.782795 -7.318421,-6.583369 -12.742892,-3.600575"
       sodipodi:nodetypes="ccccc" />
    <path
       sodipodi:nodetypes="ccccc"
       d="M 15.951483,16.102215 C 10.523036,19.084812 0.19700433,17.710776 3.205524,12.503841 4.086191,10.981335 5.0120967,10.387261 5.8770304,10.286632 5.5308406,9.487334 5.5811892,8.3893467 6.4598806,6.863156 9.7985787,1.0803608 15.820457,9.90941 15.949517,16.098536"
       style="fill:#a4c639;fill-opacity:1;fill-rule:nonzero;stroke:none"
       id="path4264"
       inkscape:connector-curvature="0" />
  </g>
  <g
     transform="matrix(0.975,0,0,0.975,0.39999983,0.39999995)"
     id="g4163"
     style="fill:#000000;fill-opacity:1">
    <path
       style="opacity:0.3;fill:#000000;fill-opacity:1;fill-rule:nonzero;stroke:none"
       d="m 26.703125,8.6347656 c -0.352163,1.7204294 -2.388137,3.5860404 -4.908203,4.8593754 0.586337,-0.04461 1.166182,-0.05623 1.728516,-0.03711 2.111345,-1.449011 3.527881,-3.264147 3.179687,-4.8222654 z M 3.0605469,13.767578 c -0.4749445,2.32164 2.1788387,3.614838 5.453125,3.8125 0.5459071,-0.357335 1.1323028,-0.694776 1.7539061,-0.99414 -3.481516,0.190402 -6.7664325,-0.775516 -7.2070311,-2.81836 z m 25.8847651,3.365234 c -0.07845,0.450396 -0.253914,0.938695 -0.564453,1.476563 -0.860314,1.485963 -1.761794,2.064769 -2.605468,2.162109 0.119725,0.277149 0.18651,0.592826 0.189453,0.949219 0.788834,-0.158103 1.61917,-0.73499 2.416015,-2.111328 0.55819,-0.966813 0.714189,-1.789728 0.564453,-2.476563 z m -11.298828,3.896485 c 0.158888,4.431977 -1.558506,8.437162 -5.005859,6.445312 -1.484444,-0.85865 -2.063999,-1.762158 -2.162109,-2.605468 -0.7793159,0.337535 -1.8498551,0.288364 -3.337891,-0.56836 -1.062779,-0.613595 -1.6044504,-1.321139 -1.7675781,-2.064453 -0.233961,1.102644 0.2356976,2.180022 1.7675781,3.064453 1.4880359,0.856724 2.5585751,0.905895 3.337891,0.56836 0.09811,0.84331 0.677665,1.746818 2.162109,2.605468 3.447353,1.99185 5.164747,-2.013335 5.005859,-6.445312 2.078409,3.91746 5.569081,6.526694 7.558594,3.078125 0.684661,-1.188093 0.840618,-2.101723 0.708984,-2.822266 -0.09084,0.525994 -0.308506,1.127316 -0.708984,1.822266 -1.989513,3.448569 -5.480185,0.839335 -7.558594,-3.078125 z"
       transform="matrix(1.025641,0,0,1.025641,-0.41025624,-0.41025636)"
       id="path4165"
       inkscape:connector-curvature="0"
       sodipodi:nodetypes="ccccccccccccccccccccccccccc" />
  </g>
  <g
     style="fill:#7c7c7c;fill-opacity:1"
     id="g4174"
     transform="matrix(0.975,0,0,0.975,0.39999983,0.39999995)">
    <path
       style="fill:#ffffff;fill-opacity:1;fill-rule:nonzero;stroke:none;opacity:0.2"
       d="M 17.84375 3.0039062 C 15.433109 2.8630836 14.397108 6.0077268 14.521484 9.5371094 C 14.614897 6.4392227 15.665151 3.8766388 17.84375 4.0039062 C 18.380632 4.0352694 18.984675 4.2302787 19.658203 4.6191406 C 21.144166 5.4794556 21.72297 6.3809349 21.820312 7.2246094 C 22.599696 6.8879232 23.670415 6.9386821 25.15625 7.7949219 C 26.068198 8.3210336 26.550781 8.95305 26.703125 9.6347656 C 26.919927 8.575616 26.501501 7.5710101 25.15625 6.7949219 C 23.670415 5.9386821 22.599696 5.8879232 21.820312 6.2246094 C 21.72297 5.3809349 21.144166 4.4794556 19.658203 3.6191406 C 18.984675 3.2302787 18.380632 3.0352694 17.84375 3.0039062 z M 9.15625 5.2597656 C 8.270126 5.2920867 7.4207663 5.8420398 6.6992188 7.0917969 C 6.0155528 8.2792496 5.8592555 9.1922155 5.9902344 9.9121094 C 6.0810887 9.3867312 6.2994452 8.7861597 6.6992188 8.0917969 C 9.0081708 4.0925742 12.622664 7.2661357 14.580078 11.599609 C 14.542471 11.222636 14.529319 10.849902 14.517578 10.478516 C 13.169241 7.5569595 11.0782 5.1896632 9.15625 5.2597656 z M 5.9394531 10.480469 C 5.1511958 10.639825 4.3200852 11.217921 3.5253906 12.591797 C 3.0478625 13.418269 2.9255821 14.141812 3.0605469 14.767578 C 3.1356585 14.400531 3.2837781 14.009963 3.5253906 13.591797 C 4.384041 12.107354 5.287549 11.5278 6.1308594 11.429688 C 6.0108307 11.15256 5.9427566 10.836927 5.9394531 10.480469 z M 23.523438 14.457031 C 22.982389 14.828352 22.410912 15.182894 21.794922 15.494141 C 25.240657 15.231966 28.492837 16.057307 28.945312 18.132812 C 29.361505 15.743494 26.750974 14.566791 23.523438 14.457031 z M 8.5136719 18.580078 C 6.4210152 19.949872 5.0297412 21.672009 5.3730469 23.236328 C 5.7321113 21.544078 7.762909 19.792189 10.267578 18.585938 C 9.6723744 18.618489 9.084669 18.614548 8.5136719 18.580078 z M 25.964844 22.720703 C 25.902013 22.733296 25.837632 22.764303 25.775391 22.771484 C 25.842858 22.927664 25.881074 23.104584 25.914062 23.285156 C 25.948435 23.086281 25.966307 22.897923 25.964844 22.720703 z "
       transform="matrix(1.025641,0,0,1.025641,-0.41025624,-0.41025636)"
       id="path4176" />
  </g>
  <g
     transform="matrix(0.975,0,0,0.975,0.39999983,1.4001919)"
     id="g4178"
     style="fill:#555555;fill-opacity:1" />
  <g
     style="fill:#4b4b4b;fill-opacity:1"
     id="g4183"
     transform="matrix(0.975,0,0,0.975,0.39999983,-0.59980813)" />
</svg>

<?xml version="1.0" encoding="UTF-8" standalone="no"?>
<svg id="svg2" xmlns:rdf="http://www.w3.org/1999/02/22-rdf-syntax-ns#" xmlns="http://www.w3.org/2000/svg" height="32" width="32" version="1.1" xmlns:cc="http://creativecommons.org/ns#" xmlns:dc="http://purl.org/dc/elements/1.1/" viewBox="0 0 32 32">
 <metadata id="metadata71">
  <rdf:RDF>
   <cc:Work rdf:about="">
    <dc:format>image/svg+xml</dc:format>
    <dc:type rdf:resource="http://purl.org/dc/dcmitype/StillImage"/>
    <dc:title/>
   </cc:Work>
  </rdf:RDF>
 </metadata>
 <g id="g4157" transform="matrix(.975 0 0 .975 0.4 0.4)">
  <path id="path4254" d="m16.152 16.049c2.9826 5.4284 1.6086 15.754-3.5984 12.746-1.5225-0.88067-2.1166-1.8066-2.2172-2.6715-0.7993 0.34619-1.8973 0.29584-3.4235-0.58285-5.7828-3.3387 3.0463-9.3606 9.2354-9.4896" fill="#37a0f2"/>
  <path id="path59" d="m16.152 16.049c0.20953-0.0045 0.42142-0.01601 0.63507-0.03432 6.101-0.524 13.637-6.5524 8.604-9.4557-1.524-0.8782-2.623-0.9298-3.422-0.5845-0.1-0.8653-0.693-1.791-2.217-2.6733-5.526-3.1907-6.502 6.4008-3.975 11.992 0.11728 0.25942 0.06692 0.53942 0.19918 0.77994" fill="#e74c3c"/>
  <path id="path4262" d="m15.951 16.102c0.13122 6.1925 6.4842 14.448 9.4893 9.2391 0.8782-1.5239 0.92972-2.6228 0.58441-3.4222 0.86531-0.09984 1.791-0.69244 2.6734-2.2165 3.3387-5.7828-7.3184-6.5834-12.743-3.6006" fill="#fecd38"/>
  <path id="path4264" d="m15.951 16.102c-5.428 2.983-15.754 1.609-12.746-3.598 0.8812-1.523 1.8071-2.117 2.672-2.217-0.3462-0.7997-0.2958-1.8977 0.5829-3.4238 3.3387-5.7828 9.3601 3.0462 9.4901 9.2358" fill="#a4c639"/>
 </g>
 <g id="g4163" transform="matrix(.975 0 0 .975 0.4 0.4)">
  <path id="path4165" opacity=".3" d="m26.703 8.6348c-0.35216 1.7204-2.3881 3.586-4.9082 4.8594 0.58634-0.04461 1.1662-0.05623 1.7285-0.03711 2.1113-1.449 3.5279-3.2641 3.1797-4.8223zm-23.642 5.1332c-0.47494 2.3216 2.1788 3.6148 5.4531 3.8125 0.54591-0.35734 1.1323-0.69478 1.7539-0.99414-3.4815 0.1904-6.7664-0.77552-7.207-2.8184zm25.885 3.3652c-0.07845 0.4504-0.25391 0.9387-0.56445 1.4766-0.86031 1.486-1.7618 2.0648-2.6055 2.1621 0.11972 0.27715 0.18651 0.59283 0.18945 0.94922 0.78883-0.1581 1.6192-0.73499 2.416-2.1113 0.55819-0.96681 0.71419-1.7897 0.56445-2.4766zm-11.299 3.8965c0.15889 4.432-1.5585 8.4372-5.0059 6.4453-1.4844-0.85865-2.064-1.7622-2.1621-2.6055-0.77932 0.33754-1.8499 0.28836-3.3379-0.56836-1.0628-0.6136-1.6045-1.3211-1.7676-2.0645-0.23396 1.1026 0.2357 2.18 1.7676 3.0645 1.488 0.85672 2.5586 0.9059 3.3379 0.56836 0.09811 0.84331 0.67766 1.7468 2.1621 2.6055 3.4474 1.9918 5.1647-2.0133 5.0059-6.4453 2.0784 3.9175 5.5691 6.5267 7.5586 3.0781 0.68466-1.1881 0.84062-2.1017 0.70898-2.8223-0.09084 0.52599-0.30851 1.1273-0.70898 1.8223-1.9895 3.4486-5.4802 0.83934-7.5586-3.0781z" transform="matrix(1.0256 0 0 1.0256 -.41026 -.41026)"/>
 </g>
 <g id="g4174" fill="#7c7c7c" transform="matrix(.975 0 0 .975 0.4 0.4)">
  <path id="path4176" opacity=".2" d="m17.844 3.0039c-2.411-0.1408-3.447 3.0038-3.323 6.5332 0.094-3.0979 1.144-5.6605 3.323-5.5332 0.537 0.0314 1.141 0.2264 1.814 0.6152 1.486 0.8604 2.065 1.7618 2.162 2.6055 0.78-0.3367 1.85-0.2859 3.336 0.5703 0.912 0.5261 1.395 1.1581 1.547 1.8399 0.217-1.0592-0.201-2.0638-1.547-2.8399-1.486-0.8562-2.556-0.907-3.336-0.5703-0.097-0.8437-0.676-1.7451-2.162-2.6055-0.673-0.3888-1.277-0.5838-1.814-0.6152zm-8.6878 2.2559c-0.8861 0.0323-1.7354 0.5822-2.457 1.832-0.6836 1.1874-0.8399 2.1004-0.709 2.8203 0.0909-0.5254 0.3092-1.1259 0.709-1.8203 2.309-3.9992 5.9238-0.8257 7.8808 3.5082-0.038-0.377-0.051-0.75-0.062-1.121-1.349-2.922-3.44-5.2893-5.3618-5.2192zm-3.2167 5.2202c-0.7883 0.16-1.6194 0.738-2.4141 2.112-0.4775 0.826-0.5998 1.55-0.4649 2.176 0.0752-0.367 0.2233-0.758 0.4649-1.176 0.8586-1.485 1.7621-2.064 2.6055-2.162-0.1201-0.277-0.1881-0.593-0.1914-0.95zm17.584 3.977c-0.541 0.371-1.112 0.726-1.728 1.037 3.446-0.262 6.698 0.563 7.15 2.639 0.417-2.39-2.194-3.566-5.422-3.676zm-15.009 4.123c-2.0927 1.37-3.484 3.092-3.1407 4.656 0.3591-1.692 2.3899-3.444 4.895-4.65-0.5956 0.032-1.1833 0.029-1.7543-0.006zm17.451 4.141c-0.063 0.012-0.127 0.043-0.19 0.05 0.068 0.157 0.106 0.334 0.139 0.514 0.034-0.199 0.052-0.387 0.051-0.564z" transform="matrix(1.0256 0 0 1.0256 -.41026 -.41026)" fill="#fff"/>
 </g>
</svg>
